X:1
T:There’s Joy in My Soul
T:There’s Joy in My Soul
T:Stephen Jesse Oslin
T:Stephen Jesse Oslin, 1905
T:Public Domain Courtesy of the Cyber Hymnal™
C:Stephen Jesse Oslin
Z:Public Domain
Z:Courtesy of the Cyber Hymnal™
%%score ( 1 2 ) ( 3 4 )
L:1/8
Q:1/4=87
M:2/4
K:Ab
V:1 treble 
V:2 treble 
V:3 bass 
V:4 bass 
V:1
 [CE] | [CA][DB] [Ec][CE] | [EA][DF] [CE][CE] | [DF][EA] [=DB]>[Dc] | [EB]3 [Ec] | [Ae][Ae] E[EA] | %6
w: 1.~I|longed to be made|free from sin, And|come in- to the|fold; The|Sav- ior found me,|
w: 2.~I’m|on my way to|Ca- naan’s land, To|Heav- en’s bless- èd|goal I’m|hap- py for I’ve|
w: 3.~I’m|sit- ting at the|Sav- ior’s feet, I’ve|come in- to the|fold; In|Him I’m saved and|
w: 4.~I’ve|found a Sav- ior|dear to me, More|pr- e- cious than|gold; He|saved my soul and|
 [EG][DF] [CE][CE] | A2 [GB]>[GB] | A3 ||"^Refrain" [Ec] | [Fc]2 [=Ec]>[Ec] | c3 [Fc] | %12
w: took me in, There’s|joy in my|soul!||||
w: par- don found, There’s|joy in my|soul!||||
w: made com- plete, There’s|joy in my|soul!|There’s|joy in my|soul! There’s|
w: made me free, There’s|joy in my|soul!||||
 [Fd]2 [A=d]>[Ad] | !fermata!e3 !fermata![Ec] | [Ae][Ae] E[EA] | [EG][DF] [CE][CE] | A2 [GB]>[GB] | %17
w: |||||
w: |||||
w: joy in my|soul! I’m|hap- py in the|Sav- ior’s love, There’s|joy in my|
w: |||||
 A2 x |] %18
w: |
w: |
w: soul!|
w: |
V:2
 x | x4 | x4 | x4 | x4 | x4 | x4 | (EF) x2 | A3 || x | x4 | (F=E F) x | x4 | (GA G) x | x4 | x4 | %16
 (EF) x2 | A2 x |] %18
V:3
 [A,,A,] | [A,,E,][A,,E,] [A,,A,][A,,A,] | [C,A,][D,A,] [A,,A,][A,,A,] | %3
 [D,A,][C,E,] [B,,F,]>[B,,A,] | [E,G,]3 A, | [A,C][A,C] A,[C,A,] | [D,A,][D,A,] [A,,A,]A, | %7
 C2 [E,D]>[E,D] | [A,,C]3 || A, | [F,A,]2 [C,G,]>[C,G,] | ([F,A,][C,G,] [F,A,])[C,A,] | %12
 [B,,B,]2 [B,,B,]>[B,,B,] | (!fermata![E,B,][A,C] !fermata![E,B,])A, | [A,C][A,C] A,[C,A,] | %15
 [D,A,][D,A,] [A,,A,]A, | C2 [E,D]>[E,D] | [A,,C]3 |] %18
V:4
 x | x4 | x4 | x4 | x3 A, | x2 A, x | x3 A, | (A,F,) x2 | x3 || A, | x4 | x4 | x4 | x3 A, | %14
 x2 A, x | x3 A, | (A,F,) x2 | x3 |] %18

